X: 21673
T: THE RENDEZVOUS REEL
R: reel
B: K\"ohler's Violin Repository, v.2, 1885 p.167 #3
F: http://www.archive.org/details/klersviolinrepos02rugg
Z: 2012 John Chambers <jc:trillian.mit.edu>
M: C|
L: 1/8
K: G
uB | {AGF}G2(GD) B,DGF | EAAG FGAB | {AGF}G2(GD) B,DGF | EGFA BGG :|
uc | (B/c/d) (dg) Bdgd | (^c/d/e) (ea) ceae | (B/c/d) (dg) Bdgd | egdg BGG |]
 c | (B/c/d) (dg) Bdgd | (^c/d/e) (ea) ceae | dgfa gdBG | EGFA BG"_Fine."G "^D.C."|]

%%sep 2 1 500

